storage/app/icons/phosphoricons/fill/text-h-five-fill.svg

<svg xmlns="http://www.w3.org/2000/svg" fill="currentColor" viewBox="0 0 256 256"><path d="M208 32H48a16 16 0 0 0-16 16v160a16 16 0 0 0 16 16h160a16 16 0 0 0 16-16V48a16 16 0 0 0-16-16m-80 128a8 8 0 0 1-16 0v-32H72v32a8 8 0 0 1-16 0V80a8 8 0 0 1 16 0v32h40V80a8 8 0 0 1 16 0Zm40-40a32 32 0 1 1-21.34 55.85 8 8 0 0 1 10.67-11.92 16 16 0 1 0 0-24 8 8 0 0 1-13.17-7.61l8-38A8 8 0 0 1 160 88h32a8 8 0 0 1 0 16h-25.51L163 120.37a34 34 0 0 1 5-.37"/></svg>

<svg xmlns="http://www.w3.org/2000/svg" viewBox="0 0 256 256" fill="currentColor"><path d="M208,32H48A16,16,0,0,0,32,48V208a16,16,0,0,0,16,16H208a16,16,0,0,0,16-16V48A16,16,0,0,0,208,32ZM128,160a8,8,0,0,1-16,0V128H72v32a8,8,0,0,1-16,0V80a8,8,0,0,1,16,0v32h40V80a8,8,0,0,1,16,0Zm40-40a32,32,0,1,1-21.34,55.85,8,8,0,0,1,10.67-11.92,16,16,0,1,0,0-24,8,8,0,0,1-13.17-7.61l8-38A8,8,0,0,1,160,88h32a8,8,0,0,1,0,16H166.49L163,120.37A34.08,34.08,0,0,1,168,120Z"/></svg>
